file/nascar.svg

<svg clip-rule="evenodd" fill-rule="evenodd" stroke-linejoin="round" stroke-miterlimit="1.41421" viewBox="0 0 560 400" xmlns="http://www.w3.org/2000/svg"><g fill-rule="nonzero" transform="matrix(1.35292 0 0 1.35292 8.06234 1.35089)"><path d="m150.493 178.688-2.729-36.964-8.94 37.021-10.295-.057 14.68-63.764 14.511.018 2.654 36.437 8.394-36.437 11.481-.018-13.162 56.291 24.581-57.541h-65.158l-14.624 66.305h51.457l.537-1.261z" fill="#ee3a43"/><path d="m30.838 113.674-14.623 66.305h4.723l14.623-66.305z" fill="#ffe119"/><path d="m46.892 113.674-14.643 66.305h5.891l14.624-66.305z" fill="#ffe119"/><path d="m62.635 113.674-14.624 66.305h7.04l14.625-66.305z" fill="#ffe119"/><path d="m78.575 113.674-14.624 66.305h10.05l14.625-66.305z" fill="#ffe119"/><path d="m94.145 113.674-14.624 66.305h12.065l14.642-66.305z" fill="#ffe119"/><path d="m110.288 113.674-14.643 66.305h12.648l14.643-66.305z" fill="#ee3a43"/><path d="m250.773 178.766-5.741-8.355 11.236-46.318 9.8-8.837.374-1.58h-73.946l-.546 1.287h16.268l-3.444 63.746-11.649.038.641-11.161-12.762.021-5.063 11.142-11.046-.024-.535 1.26h86.332l.288-1.215h-.206v-.004zm-17.705-.047-20.101.057-6.307-8.883 1.676-8.959 11.235.056-.847 5.385 13.646-.058 3.352-13.27-17.335-.095-5.834-8.694 4.911-20.232 9.976-9.034 20.76-.057s3.914 6.211 5.759 8.695l-2.276 9.26-11.405-.057.903-5.25-12.91.056-3.332 13.137 15.923-.056 7.151 8.075-5.308 21.624z" fill="#b92f93"/><path d="m194.892 135.4-8.676 20.609h7.81z" fill="#b92f93"/><path d="m163.88 178.718-.537 1.261h1.015l.535-1.259z" fill="#b92f93"/><g fill="#007ac3"><path d="m366.351 171.506c-.227-.111-.565-.169-1.056-.169h-.771l-.338 1.845h.81c.395 0 .678-.057.884-.113.396-.149.604-.413.679-.809.056-.358-.002-.621-.208-.754z"/><path d="m266.631 113.674-.295 1.337.095-.085 18.652.019 7.188 9.975-3.313 13.287-11.291.075 2.163-10.352-13.362-.075-8.677 39.073 13.005.02 3.389-14.381 11.52-.019-4.744 18.369-9.448 7.83-19.218.017-.269 1.217h119.134l14.625-66.307zm77.467 65.096 4.875-22.041h-13.738l-4.763 22.021-22.66-.037.564-11.781h-12.233l-5.325 11.818-11.521.074 26.783-63.858 16.713-.057-2.146 54.862 13.081-54.844 27.741.02 6.587 9.166-4.911 19.931-5.439 5.063 3.181 5.625-5.495 24.037h-11.294zm25.754-5.475c-.244 1.279-.904 2.391-1.978 3.313-1.054.923-2.239 1.375-3.557 1.375-1.28 0-2.297-.452-3.049-1.375-.753-.922-1.018-2.015-.791-3.313.243-1.299.885-2.41 1.958-3.313 1.071-.903 2.238-1.355 3.537-1.355s2.314.452 3.087 1.355c.737.903 1 2.014.793 3.313z"/><path d="m338.924 143.967 12.497-.018 3.876-16.581h-12.308z"/><path d="m365.861 169.229c-1.109 0-2.126.434-3.066 1.205-.903.789-1.449 1.73-1.657 2.86-.226 1.11.021 2.052.68 2.858.621.791 1.485 1.188 2.615 1.188s2.146-.396 3.067-1.188c.94-.808 1.486-1.748 1.675-2.858.228-1.13-.019-2.071-.678-2.86-.64-.772-1.526-1.205-2.636-1.205zm1.601 2.974c-.094.433-.318.79-.678.997-.206.112-.47.188-.809.245.395.074.657.226.809.508.132.264.188.527.132.79l-.075.376c-.019.113-.019.246-.037.378 0 .149-.02.226 0 .282l.02.037h-.847v-.037-.057-.15l.057-.415c.132-.603.019-.997-.265-1.187-.168-.094-.489-.15-.979-.15h-.733l-.319 1.996h-.903l.903-5.118h1.789c.64 0 1.091.075 1.373.187.468.226.676.659.562 1.318z"/><path d="m308.641 155.994.884-20.59-8.694 20.59z"/><path d="m266.337 115.011.294-1.337h-.189l-.374 1.58z"/><path d="m250.978 178.766-.288 1.213h1.336l.269-1.215z"/></g></g></svg>

<?xml version="1.0" encoding="UTF-8" standalone="no"?>
<!DOCTYPE svg PUBLIC "-//W3C//DTD SVG 1.1//EN" "http://www.w3.org/Graphics/SVG/1.1/DTD/svg11.dtd">
<svg width="100%" height="100%" viewBox="0 0 560 400" version="1.1" xmlns="http://www.w3.org/2000/svg" xmlns:xlink="http://www.w3.org/1999/xlink" xml:space="preserve" xmlns:serif="http://www.serif.com/" style="fill-rule:evenodd;clip-rule:evenodd;stroke-linejoin:round;stroke-miterlimit:1.41421;">
    <g transform="matrix(1.35292,0,0,1.35292,8.06234,1.35089)">
        <path d="M150.493,178.688L147.764,141.724L138.824,178.745L128.529,178.688L143.209,114.924L157.72,114.942L160.374,151.379L168.768,114.942L180.249,114.924L167.087,171.215L191.668,113.674L126.51,113.674L111.886,179.979L163.343,179.979L163.88,178.718L150.493,178.688Z" style="fill:rgb(238,58,67);fill-rule:nonzero;"/>
        <path d="M30.838,113.674L16.215,179.979L20.938,179.979L35.561,113.674L30.838,113.674Z" style="fill:rgb(255,225,25);fill-rule:nonzero;"/>
        <path d="M46.892,113.674L32.249,179.979L38.14,179.979L52.764,113.674L46.892,113.674Z" style="fill:rgb(255,225,25);fill-rule:nonzero;"/>
        <path d="M62.635,113.674L48.011,179.979L55.051,179.979L69.676,113.674L62.635,113.674Z" style="fill:rgb(255,225,25);fill-rule:nonzero;"/>
        <path d="M78.575,113.674L63.951,179.979L74.001,179.979L88.626,113.674L78.575,113.674Z" style="fill:rgb(255,225,25);fill-rule:nonzero;"/>
        <path d="M94.145,113.674L79.521,179.979L91.586,179.979L106.228,113.674L94.145,113.674Z" style="fill:rgb(255,225,25);fill-rule:nonzero;"/>
        <path d="M110.288,113.674L95.645,179.979L108.293,179.979L122.936,113.674L110.288,113.674Z" style="fill:rgb(238,58,67);fill-rule:nonzero;"/>
        <path d="M250.773,178.766L245.032,170.411L256.268,124.093L266.068,115.256L266.442,113.676L192.496,113.676L191.95,114.963L208.218,114.963L204.774,178.709L193.125,178.747L193.766,167.586L181.004,167.607L175.941,178.749L164.895,178.725L164.36,179.985L250.692,179.985L250.98,178.77L250.774,178.77L250.774,178.766L250.773,178.766ZM233.068,178.719L212.967,178.776L206.66,169.893L208.336,160.934L219.571,160.99L218.724,166.375L232.37,166.317L235.722,153.047L218.387,152.952L212.553,144.258L217.464,124.026L227.44,114.992L248.2,114.935C248.2,114.935 252.114,121.146 253.959,123.63L251.683,132.89L240.278,132.833L241.181,127.583L228.271,127.639L224.939,140.776L240.862,140.72L248.013,148.795L242.705,170.419L233.068,178.719Z" style="fill:rgb(185,47,147);fill-rule:nonzero;"/>
        <path d="M194.892,135.4L186.216,156.009L194.026,156.009L194.892,135.4Z" style="fill:rgb(185,47,147);fill-rule:nonzero;"/>
        <path d="M163.88,178.718L163.343,179.979L164.358,179.979L164.893,178.72L163.88,178.718Z" style="fill:rgb(185,47,147);fill-rule:nonzero;"/>
        <path d="M366.351,171.506C366.124,171.395 365.786,171.337 365.295,171.337L364.524,171.337L364.186,173.182L364.996,173.182C365.391,173.182 365.674,173.125 365.88,173.069C366.276,172.92 366.484,172.656 366.559,172.26C366.615,171.902 366.557,171.639 366.351,171.506Z" style="fill:rgb(0,122,195);fill-rule:nonzero;"/>
        <path d="M266.631,113.674L266.336,115.011L266.431,114.926L285.083,114.945L292.271,124.92L288.958,138.207L277.667,138.282L279.83,127.93L266.468,127.855L257.791,166.928L270.796,166.948L274.185,152.567L285.705,152.548L280.961,170.917L271.513,178.747L252.295,178.764L252.026,179.981L371.16,179.981L385.785,113.674L266.631,113.674ZM344.098,178.77L348.973,156.729L335.235,156.729L330.472,178.75L307.812,178.713L308.376,166.932L296.143,166.932L290.818,178.75L279.297,178.824L306.08,114.966L322.793,114.909L320.647,169.771L333.728,114.927L361.469,114.947L368.056,124.113L363.145,144.044L357.706,149.107L360.887,154.732L355.392,178.769L344.098,178.769L344.098,178.77ZM369.852,173.295C369.608,174.574 368.948,175.686 367.874,176.608C366.82,177.531 365.635,177.983 364.317,177.983C363.037,177.983 362.02,177.531 361.268,176.608C360.515,175.686 360.25,174.593 360.477,173.295C360.72,171.996 361.362,170.885 362.435,169.982C363.506,169.079 364.673,168.627 365.972,168.627C367.271,168.627 368.286,169.079 369.059,169.982C369.796,170.885 370.059,171.996 369.852,173.295Z" style="fill:rgb(0,122,195);fill-rule:nonzero;"/>
        <path d="M338.924,143.967L351.421,143.949L355.297,127.368L342.989,127.368L338.924,143.967Z" style="fill:rgb(0,122,195);fill-rule:nonzero;"/>
        <path d="M365.861,169.229C364.752,169.229 363.735,169.663 362.795,170.434C361.892,171.223 361.346,172.164 361.138,173.294C360.912,174.404 361.159,175.346 361.818,176.152C362.439,176.943 363.303,177.34 364.433,177.34C365.563,177.34 366.579,176.944 367.5,176.152C368.44,175.344 368.986,174.404 369.175,173.294C369.403,172.164 369.156,171.223 368.497,170.434C367.857,169.662 366.971,169.229 365.861,169.229ZM367.462,172.203C367.368,172.636 367.144,172.993 366.784,173.2C366.578,173.312 366.314,173.388 365.975,173.445C366.37,173.519 366.632,173.671 366.784,173.953C366.916,174.217 366.972,174.48 366.916,174.743L366.841,175.119C366.822,175.232 366.822,175.365 366.804,175.497C366.804,175.646 366.784,175.723 366.804,175.779L366.824,175.816L365.977,175.816L365.977,175.779L365.977,175.722L365.977,175.572L366.034,175.157C366.166,174.554 366.053,174.16 365.769,173.97C365.601,173.876 365.28,173.82 364.79,173.82L364.057,173.82L363.738,175.816L362.835,175.816L363.738,170.698L365.527,170.698C366.167,170.698 366.618,170.773 366.9,170.885C367.368,171.111 367.576,171.544 367.462,172.203Z" style="fill:rgb(0,122,195);fill-rule:nonzero;"/>
        <path d="M308.641,155.994L309.525,135.404L300.831,155.994L308.641,155.994Z" style="fill:rgb(0,122,195);fill-rule:nonzero;"/>
        <path d="M266.337,115.011L266.631,113.674L266.442,113.674L266.068,115.254L266.337,115.011Z" style="fill:rgb(0,122,195);fill-rule:nonzero;"/>
        <path d="M250.978,178.766L250.69,179.979L252.026,179.979L252.295,178.764L250.978,178.766Z" style="fill:rgb(0,122,195);fill-rule:nonzero;"/>
    </g>
</svg>
